X:1
T:Aus tiefer Not
T:Lupus Hellingk
T:Source : DDT 34---Leipzig---Breitkopt & Härtel---J.Wolf---1908. First publication : Neue Deudsche Geistliche Gesenge---Wittemberg---G.Rhau---1544. Editor :  André Vierendeels ( 19/07/17).        
T:Notes : Original clefs : C1, C3, C4, F4, Original note values have been halved Editorial  accidentals above the staff
T:Aus tiefer Not
T:©
T:©
T:©
T:©
C:Lupus Hellingk
Z:©
%%score [ 1 [ 2 3 ] 4 ]
L:1/8
Q:1/4=120
M:2/2
K:C
V:1 treble nm="Soprano" snm="S"
V:2 treble-8 nm="Tenor 1" snm="T 1"
V:3 treble-8 nm="Tenor 2" snm="T 2"
V:4 bass nm="Bass" snm="B"
V:1
 z8 | z4 B4- | B4 E4 | B4 c4 | B2 G3 F D2 | E2 C2 D4 | C2 E3 F G2- | GFED C2 c2 | B2 G3 F D2 | %9
w: |Aus|_ tie-|fer Not|schrei ich _ _|zu- * dir,|Her Gott, er- hör|_ _ _ _ _ mein|Ru- * * *|
w: |Dein|_ gnä-|dir Oh-|ren kehr _ _|zu- * mir|und mei- ner Bit-|* * * * * sie|öf- * * *|
 E4 z2 B2 | c2 A3 G F2 | FE E4 D2 | E4 z4 :| z2 E2 G4- | G2 G2 G4 | A2 F2 E2 A2- | A2 G2 A2 c2- | %17
w: fen, mein|Ru- * * *||fen.|Denn so|_ du wilt|das _ se- *|* hen an, was|
w: fen, sie|öf- * * *||fen.|||||
 c2 BA B4 | A6 F2 | G2 E2 D2 G2- |"^#" G2 F2 G2 D2 |"^-natural" G3 F E2 A2- | A2 G2 A2 E2- | %23
w: _ _ _ _|Sünd und|Un- recht ist _|_ ge- tan, wer|kann, _ _ Herr,|_ für dir blei-|
w: ||||||
 E2 G3 F E2- | E2 D2 E4- | E8- | E8 |] %27
w: |* * ben?|_||
w: ||||
V:2
 e8 | A4 e4- | e2 d2 c2 BA | B2 e3 def | g2 EF GA B2- | BA A4 G2 | A4 G3 A | B2 c4 BA | %8
w: Aus|tie- fer|_ _ Not _ _|_ schei- * * *|* ic _ _ _ _|_ _ _ zu|dir, Herr _|_ Gott, _ _|
w: Dein|gnä- dig|_ _ Oh- * *||ren kehr _ _ _ _|_ _ _ zu|mir und _|_ mei- * *|
 G2 EF GA B2- | BA A4 G2 | A4 A2 d2 | B2 c2 A4 | A4 z4 :| c6 B2 | e4 d2 B2 | c2 d2 e4 | e4 z2 e2- | %17
w: _ er- * * * *||hör mein Ru-||fen.|Denn so|du wilt das|se- * hen|an, was|
w: * ner _ _ _ _|_ _ Bitt _|_ sie öf-||fen.|||||
 ec f2 e2 d2- | dc c3 BBA | c4 d2 e2 | d2 d3 cBA | G2 g3 f e2- | ed B2 c3 B | G2 c2 B2 c2 | %24
w: _ _ _ Sünd und|_ _ Un- * * *|recht ist _|ge- tan, _ _ _|_ wer _ kann,|_ _ _ Herr, _|für dir blei- *|
w: |||||||
 A3 B c2 B2- | B2 AG c4 | B8 |] %27
w: ||be?|
w: |||
V:3
 z8 | z8 | z8 | z8 | B8 | E4 B4 | c4 B4 | G4 A4 | B4 z2 B2 | c4 d4 | c4 A4 | G4 F4 | E4 z4 :| %13
w: ||||Aus|tie- fer|Not schrei|ich zu|dir, Herr|Gott, er-|hör mein|Ru- *|fen.|
w: ||||Dein|gnä- dig|oh- ren|kehr zu|mir, und|mei- ner|Bitt sie|öf- *|fen.|
 z2 A2 G4 | c4 B4 | A2 d4 c2 | B4 A4 | z2 c2 B4 | c4 d4 | G4 B2 c2 | A4 G4 | z2 G2 c4 | B4 A4 | %23
w: Denn so|du wilt|das se- *|hen an,|was Sünd|und Un-|recht ist _|ge- tan,|wer kann,|Herr, für|
w: ||||||||||
 E4 G4 | F4 E4- | E8- | E8 |] %27
w: dir blei-|* ben?|_||
w: ||||
V:4
 z8 | z8 | z4 E,4- | E,4 A,,4 | E,6 D,2 | C,2 B,,A,, B,,4 | A,,4 E,4- | E,4 A,,4 | E,6 D,2 | %9
w: ||Aus|_ tie-|fer Not|schei ich _ zu|dir, Herr|_ Gott,|er- *|
w: ||Dein|_ gnä-|dig Oh-|ren kehr _ zu|mir, und|_ mei-|ner _|
 C,2 B,,A,, B,,4 | A,,4 D,4 | E,2 C,2 D,4 | A,,4 z4 :| z2 A,,2 E,4- | E,2 C,2 G,4 | F,2 D,2 A,4 | %16
w: hör _ _ _|_ mein|Ru- * *|fen|Denn so|_ du wilt|das se- hen|
w: Bitt _ _ _|_ sie|öf- * *|fen.||||
 E,4 z2 A,2- | A,2 F,2 G,4 | F,3 E, D,4 | C,4 G,2 C,2 | D,4 z2 G,2- | G,F,E,D, C,2 A,,2 | %22
w: an, was|_ Sünd und|Un- * *|recht ist ge-|tan, wer|_ _ _ _ _ kann,|
w: ||||||
 E,4 A,,4 | C,3 D, E,2 C,2 | D,4 z2 G,2 | G,F,E,D, C,2 A,,2 | E,8 |] %27
w: Herr, für|dir _ _ _|_ blei-||ben?|
w: |||||

